modules/stroke-7/icons/rocket.svg

<?xml version="1.0" encoding="utf-8"?>
<!-- Generated by IcoMoon.io -->
<!DOCTYPE svg PUBLIC "-//W3C//DTD SVG 1.1//EN" "http://www.w3.org/Graphics/SVG/1.1/DTD/svg11.dtd">
<svg version="1.1" xmlns="http://www.w3.org/2000/svg" xmlns:xlink="http://www.w3.org/1999/xlink" width="21" height="32" viewBox="0 0 21 32">
<g id="icomoon-ignore">
</g>
<path d="M10.667 7.467c-1.493 0-2.667 1.173-2.667 2.667s1.173 2.667 2.667 2.667c1.493 0 2.667-1.173 2.667-2.667s-1.173-2.667-2.667-2.667zM10.667 11.733c-0.907 0-1.6-0.693-1.6-1.6s0.693-1.6 1.6-1.6c0.907 0 1.6 0.693 1.6 1.6s-0.693 1.6-1.6 1.6z" fill="#000000"></path>
<path d="M16 18.933c0-3.84 0-8.213 0-9.813 0-2.987-1.973-7.040-5.333-9.12-3.36 2.080-5.333 6.133-5.333 9.173 0 1.6 0 5.973 0 9.813l-5.333 6.613h21.333l-5.333-6.667zM5.333 24.533h-3.093l3.093-3.893v3.893zM14.933 24.533h-8.533v-15.36c0-2.4 1.493-5.867 4.267-7.893 2.773 2.027 4.267 5.44 4.267 7.893v15.36zM16 20.64l3.093 3.893h-3.093c0-0.907 0-2.293 0-3.893z" fill="#000000"></path>
<path d="M10.133 26.667h1.067v5.333h-1.067v-5.333z" fill="#000000"></path>
<path d="M12.8 26.667h1.067v3.2h-1.067v-3.2z" fill="#000000"></path>
<path d="M7.467 26.667h1.067v3.2h-1.067v-3.2z" fill="#000000"></path>
</svg>

<svg xmlns="http://www.w3.org/2000/svg" width="21" height="32" viewBox="0 0 21 32"><path d="M10.667 7.467C9.174 7.467 8 8.64 8 10.134s1.173 2.667 2.667 2.667c1.493 0 2.667-1.173 2.667-2.667s-1.173-2.667-2.667-2.667zm0 4.266c-.907 0-1.6-.693-1.6-1.6s.693-1.6 1.6-1.6c.907 0 1.6.693 1.6 1.6s-.693 1.6-1.6 1.6z"/><path d="M16 18.933V9.12c0-2.987-1.973-7.04-5.333-9.12-3.36 2.08-5.333 6.133-5.333 9.173v9.813L.001 25.599h21.333l-5.333-6.667zm-10.667 5.6H2.24l3.093-3.893v3.893zm9.6 0H6.4V9.173c0-2.4 1.493-5.867 4.267-7.893 2.773 2.027 4.267 5.44 4.267 7.893v15.36zM16 20.64l3.093 3.893H16V20.64zM10.133 26.667H11.2V32h-1.067v-5.333zM12.8 26.667h1.067v3.2H12.8v-3.2zM7.467 26.667h1.067v3.2H7.467v-3.2z"/></svg>
